X: 7704
T: College Groves, The
R: reel
M: 4/4
K: Dmajor
|D2 (3FED ADFD|E2=cE dEcE|D2 FA dfed|cAGE ED D2|
D2 (3FED ADFD|E2=cE dEcE|D2 FA dfed|cAGE ED D2||
fd d2 fagf|e=c c2 efge|fd d2 dfed|cAGE ED D2|
fd d2 fagf|e=c c2 efge|dfeg (3fga gb|afge fd d2||
faag fddf|efgf e=cc2|faag fded|cAGE ED D2|
faag fddf|efgf e=cc2|dfeg (3fga gb|afge fd d2||
f2df f2df|e2=ce e2ce|f2df f2ed|cAGE ED D2|
f2df f2df|e2=ce e2ce|dfeg (3fga gb|afge fdd2||

